X: 1
T: BARNEY'S GOAT -- JIG
B: Ryan's Mammoth Collection of Fiddle Tunes
R: jig
M: 9/8
L: 1/8
Z: Contributed 20010706205016 by John Chambers jmchambers:rcn.net
K: Em
 vB2e e2f g3 | B2d d2e dBG | B2e e2f g2a | b2a g2e dBA \
| B2e e2f g3 | B2d d2e dBG | B2e e2f g2a | b2a g2e dBA H[|]|]
 vBcB B2A G2A | BcB B2e dBA | BcB B2A G2A | B2d d2e dBA \
| BcB B2A G2A | BcB B2e dBA | BcB B2A G2A | B2d d2e dBA "D.C."[|]|]
